src/assets/images/currencies/btc.svg

<svg height="32" viewBox="0 0 32 32" width="32" xmlns="http://www.w3.org/2000/svg"><path d="m19.57625 15.5824375c.8665625-.443125 1.4180312-1.2309375 1.29-2.540625-.1674375-1.7922187-1.6393125-2.3929062-3.5890625-2.5602813v-2.4815312h-1.5165v2.4125937c-.3939063 0-.7976563.0098438-1.201375.0196875v-2.4322812h-1.5165v2.4815312c-.5575625.0168438-1.2069375.0086251-3.0428125 0v1.6149375c1.1973125-.0211875 1.8255312-.0981249 1.9694687.6695938v6.7946562c-.0914062.609125-.578875.5214063-1.6642187.5022188l-.30525 1.8020625c2.7650625 0 3.0428437.0098438 3.0428437.0098438v2.1251562h1.5165v-2.095625c.4135625.0098437.8173125.0098437 1.201375.0098437v2.0857813h1.5165v-2.1251562c2.5405938-.137875 4.2389688-.7779376 4.4654688-3.1708438.1772187-1.9201875-.72875-2.7769375-2.1664375-3.1215625zm-4.987375-3.3776563c.8567187 0 3.5351875-.2658437 3.5351875 1.5165001 0 1.7035937-2.6784375 1.506625-3.5351875 1.506625zm0 7.868v-3.3283749c1.024125 0 4.1602188-.2855626 4.1602188 1.6642187 0 1.8808125-3.1360938 1.6641562-4.1602188 1.6641562z" fill="#ff9580" fill-rule="evenodd"/></svg>

<svg xmlns="http://www.w3.org/2000/svg" width="32" height="32" viewBox="0 0 32 32">
  <path fill="#FF9580" fill-rule="evenodd" d="M19.57625,15.5824375 C20.4428125,15.1393125 20.9942812,14.3515 20.86625,13.0418125 C20.6988125,11.2495938 19.2269375,10.6489063 17.2771875,10.4815312 L17.2771875,8 L15.7606875,8 L15.7606875,10.4125937 C15.3667812,10.4125937 14.9630312,10.4224375 14.5593125,10.4322812 L14.5593125,8 L13.0428125,8 L13.0428125,10.4815312 C12.48525,10.498375 11.835875,10.4901563 10,10.4815312 L10,12.0964687 C11.1973125,12.0752812 11.8255312,11.9983438 11.9694687,12.7660625 L11.9694687,19.5607187 C11.8780625,20.1698437 11.3905937,20.082125 10.30525,20.0629375 L10,21.865 C12.7650625,21.865 13.0428437,21.8748438 13.0428437,21.8748438 L13.0428437,24 L14.5593437,24 L14.5593437,21.904375 C14.9729062,21.9142187 15.3766562,21.9142187 15.7607187,21.9142187 L15.7607187,24 L17.2772187,24 L17.2772187,21.8748438 C19.8178125,21.7369688 21.5161875,21.0969062 21.7426875,18.704 C21.9199062,16.7838125 21.0139375,15.9270625 19.57625,15.5824375 L19.57625,15.5824375 Z M14.588875,12.2047812 C15.4455937,12.2047812 18.1240625,11.9389375 18.1240625,13.7212813 C18.1240625,15.424875 15.445625,15.2279063 14.588875,15.2279063 L14.588875,12.2047812 L14.588875,12.2047812 Z M14.588875,20.0727812 L14.588875,16.7444063 C15.613,16.7444063 18.7490938,16.4588437 18.7490938,18.408625 C18.7490938,20.2894375 15.613,20.0727812 14.588875,20.0727812 Z"/>
</svg>
